polaris-icons/icons/new-icons/ThemeStoreMajor.svg

<svg width="20" height="20" viewBox="0 0 20 20" fill="none" xmlns="http://www.w3.org/2000/svg">
<path fill-rule="evenodd" clip-rule="evenodd" d="M7.25 3.5C5.17893 3.5 3.5 5.17893 3.5 7.25V12.75C3.5 14.8211 5.17893 16.5 7.25 16.5H11.25C11.6642 16.5 12 16.1642 12 15.75V5H12.75C13.9926 5 15 6.00736 15 7.25V8.25C15 8.66421 15.3358 9 15.75 9C16.1642 9 16.5 8.66421 16.5 8.25V7.25C16.5 5.17893 14.8211 3.5 12.75 3.5H7.25ZM10.5 9.5V15H7.25C6.00736 15 5 13.9926 5 12.75V9.5H10.5ZM10.5 5V8H5V7.25C5 6.00736 6.00736 5 7.25 5H10.5Z" fill="#4A4A4A"/>
<path d="M14 11.1067C13.2718 11.3641 12.75 12.0586 12.75 12.875C12.75 13.9105 13.5895 14.75 14.625 14.75H15.375C15.5821 14.75 15.75 14.9179 15.75 15.125C15.75 15.3321 15.5821 15.5 15.375 15.5H13.5C13.0858 15.5 12.75 15.8358 12.75 16.25C12.75 16.6642 13.0858 17 13.5 17H14V17.25C14 17.6642 14.3358 18 14.75 18C15.1642 18 15.5 17.6642 15.5 17.25V16.9959C16.4773 16.9316 17.25 16.1185 17.25 15.125C17.25 14.0895 16.4105 13.25 15.375 13.25H14.625C14.4179 13.25 14.25 13.0821 14.25 12.875C14.25 12.6679 14.4179 12.5 14.625 12.5H16.5C16.9142 12.5 17.25 12.1642 17.25 11.75C17.25 11.3358 16.9142 11 16.5 11H15.5V10.75C15.5 10.3358 15.1642 10 14.75 10C14.3358 10 14 10.3358 14 10.75V11.1067Z" fill="#4A4A4A"/>
</svg>

<svg viewBox="0 0 20 20" xmlns="http://www.w3.org/2000/svg"><path fill-rule="evenodd" d="M7.25 3.5a3.75 3.75 0 0 0-3.75 3.75v5.5a3.75 3.75 0 0 0 3.75 3.75h4a.75.75 0 0 0 .75-.75v-10.75h.75a2.25 2.25 0 0 1 2.25 2.25v1a.75.75 0 0 0 1.5 0v-1a3.75 3.75 0 0 0-3.75-3.75h-5.5Zm3.25 6v5.5h-3.25a2.25 2.25 0 0 1-2.25-2.25v-3.25h5.5Zm0-4.5v3h-5.5v-.75a2.25 2.25 0 0 1 2.25-2.25h3.25Z" fill="#5C5F62"/><path d="M14 11.107a1.876 1.876 0 0 0 .625 3.643h.75a.375.375 0 0 1 0 .75h-1.875a.75.75 0 0 0 0 1.5h.5v.25a.75.75 0 0 0 1.5 0v-.254a1.875 1.875 0 0 0-.125-3.746h-.75a.375.375 0 0 1 0-.75h1.875a.75.75 0 0 0 0-1.5h-1v-.25a.75.75 0 0 0-1.5 0v.357Z" fill="#5C5F62"/></svg>
